build/images/backgrounds/request_form/mobile.svg

<svg width="328" height="520" viewBox="0 0 328 520" fill="none" xmlns="http://www.w3.org/2000/svg">
<g clip-path="url(#clip0_6159_69369)">
<g opacity="0.56" filter="url(#filter0_f_6159_69369)">
<ellipse cx="56.4838" cy="52.726" rx="181.587" ry="261.147" transform="rotate(-120 56.4838 52.726)" fill="#DAF0FF"/>
</g>
<path opacity="0.4" d="M243.658 119.074C243.658 119.853 243.186 120.324 242.242 120.486L241.438 120.285H233.518C232.467 120.1 231.941 119.599 231.941 118.796C231.941 116.751 233.897 116.01 237.803 116.574C239.288 116.79 240.634 117.152 241.848 117.662C243.062 118.171 243.666 118.642 243.666 119.074M277.417 97.86C277.417 95.2517 277.835 93.0601 278.67 91.2852C280.341 87.7586 283.45 86.0377 288.013 86.1226C291.246 86.2075 294.347 87.3341 297.309 89.5103C299.065 90.7759 300.372 92.1881 301.231 93.7469C303.064 92.026 305.554 91.208 308.709 91.2852C310.921 91.3084 313.373 92.0646 316.065 93.5463C316.281 93.6775 316.482 93.8164 316.668 93.9476C317.155 91.9875 317.959 90.1122 319.096 88.3373C322.252 83.576 327.449 81.2686 334.704 81.3998C339.259 81.5079 343.722 82.9895 348.084 85.8371C353.095 89.1168 355.632 92.9906 355.686 97.451C356.792 96.9417 358.169 96.7025 359.809 96.7256C363.343 96.8028 366.429 98.4079 369.066 101.526C370.66 103.378 371.936 105.315 372.91 107.336C374.07 105.16 375.671 104.134 377.721 104.273C379.77 104.381 381.534 105.724 383.019 108.309C384.419 110.701 384.999 113.001 384.759 115.208C386.136 114.938 388.371 115.316 391.472 116.334C394.574 117.353 396.082 119.035 395.997 121.374C388.556 121.32 378.587 121.157 366.081 120.887C353.606 120.648 338.184 120.633 319.831 120.849C301.501 121.088 287.015 121.134 276.373 120.972C265.731 120.81 256.311 120.664 248.113 120.525C246.767 118.132 247.332 116.489 249.814 115.601C252.297 114.691 253.936 114.421 254.749 114.799C255.506 115.146 255.893 115.323 255.924 115.323C256.032 115.323 256.11 115.308 256.164 115.285V115.2C256.272 113.803 256.543 112.592 256.976 111.573C257.788 109.559 259.389 108.579 261.787 108.625C263.38 108.648 264.656 109.065 265.63 109.875C265.87 108.185 266.334 106.704 267.007 105.438C268.732 102.212 271.748 100.638 276.064 100.723C276.605 100.692 277.131 100.723 277.641 100.8C277.51 99.9668 277.44 98.9867 277.44 97.8523M223.286 119.961C223.101 119.776 223 119.475 223 119.074C223 118.186 223.797 117.677 225.382 117.538C226.975 117.407 227.764 117.916 227.764 119.074C227.764 119.398 227.695 119.653 227.563 119.838C227.215 120.27 226.488 120.486 225.382 120.486C224.276 120.486 223.626 120.309 223.278 119.961H223.286Z" fill="#EFF8FF"/>
</g>
<defs>
<filter id="filter0_f_6159_69369" x="-330.827" y="-295.222" width="774.623" height="695.896" filterUnits="userSpaceOnUse" color-interpolation-filters="sRGB">
<feFlood flood-opacity="0" result="BackgroundImageFix"/>
<feBlend mode="normal" in="SourceGraphic" in2="BackgroundImageFix" result="shape"/>
<feGaussianBlur stdDeviation="71.7709" result="effect1_foregroundBlur_6159_69369"/>
</filter>
<clipPath id="clip0_6159_69369">
<rect width="328" height="520" fill="white"/>
</clipPath>
</defs>
</svg>

<svg xmlns="http://www.w3.org/2000/svg" fill="none" viewBox="0 0 328 520">
  <g clip-path="url(#a)">
    <g filter="url(#b)" opacity=".6">
      <ellipse cx="56.5" cy="52.7" fill="#DAF0FF" rx="181.6" ry="261.1" transform="rotate(-120 56.5 52.7)"/>
    </g>
    <path fill="#EFF8FF" d="M243.7 119c0 .9-.5 1.3-1.5 1.5l-.8-.2h-7.9c-1-.2-1.6-.7-1.6-1.5 0-2 2-2.8 5.9-2.2 1.5.2 2.8.6 4 1 1.3.6 1.9 1 1.9 1.5m33.7-21.2c0-2.6.4-4.8 1.3-6.6 1.6-3.5 4.8-5.3 9.3-5.2 3.2.1 6.3 1.2 9.3 3.4a13 13 0 0 1 4 4.2c1.8-1.7 4.3-2.5 7.4-2.4a15.9 15.9 0 0 1 8 2.6c.5-2 1.3-3.8 2.4-5.6 3.2-4.7 8.3-7 15.6-6.9 4.6.1 9 1.6 13.4 4.4 5 3.3 7.5 7.2 7.6 11.7 1-.6 2.5-.8 4.1-.8 3.5.1 6.6 1.7 9.3 4.8 1.6 1.9 2.8 3.8 3.8 5.8 1.2-2.1 2.8-3.2 4.8-3 2 0 3.8 1.4 5.3 4 1.4 2.4 2 4.7 1.8 7 1.3-.4 3.6 0 6.7 1 3 1 4.6 2.7 4.5 5-7.4 0-17.4-.1-30-.4-12.4-.3-27.8-.3-46.2 0a1630.8 1630.8 0 0 1-71.7-.4c-1.3-2.4-.8-4 1.7-4.9 2.5-1 4.1-1.2 5-.8l1.1.5h.3v-.1c0-1.4.3-2.6.8-3.6.8-2 2.4-3 4.8-3a6 6 0 0 1 3.8 1.3c.3-1.7.7-3.2 1.4-4.5 1.7-3.2 4.7-4.8 9-4.7l1.6.1-.2-3M223.3 120c-.2-.2-.3-.5-.3-1 0-.8.8-1.3 2.4-1.5 1.6 0 2.4.4 2.4 1.6l-.2.7c-.4.5-1.1.7-2.2.7s-1.8-.2-2.1-.5Z" opacity=".4"/>
  </g>
  <defs>
    <clipPath id="a">
      <path fill="#fff" d="M0 0h328v520H0z"/>
    </clipPath>
    <filter id="b" width="774.6" height="695.9" x="-330.8" y="-295.2" color-interpolation-filters="sRGB" filterUnits="userSpaceOnUse">
      <feFlood flood-opacity="0" result="BackgroundImageFix"/>
      <feBlend in="SourceGraphic" in2="BackgroundImageFix" result="shape"/>
      <feGaussianBlur result="effect1_foregroundBlur_6159_69369" stdDeviation="71.8"/>
    </filter>
  </defs>
</svg>
